client/src/styles/verticalmedia.svg

<?xml version="1.0" encoding="UTF-8" standalone="no"?><!DOCTYPE svg PUBLIC "-//W3C//DTD SVG 1.1//EN" "http://www.w3.org/Graphics/SVG/1.1/DTD/svg11.dtd"><svg width="100%" height="100%" viewBox="0 0 2084 2084" version="1.1" xmlns="http://www.w3.org/2000/svg" xmlns:xlink="http://www.w3.org/1999/xlink" xml:space="preserve" xmlns:serif="http://www.serif.com/" style="fill-rule:evenodd;clip-rule:evenodd;stroke-linejoin:round;stroke-miterlimit:2;"><g><path d="M1715.83,223.75c79.167,0 143.75,64.583 143.75,143.75l0,1348.33c0,79.167 -64.583,143.75 -143.75,143.75l-1348.33,0c-79.167,0 -143.75,-64.583 -143.75,-143.75l0,-1348.33c0,-79.167 64.583,-143.75 143.75,-143.75l1348.33,0m0,-70.833l-1348.33,-0c-118.75,-0 -214.583,96.25 -214.583,214.583l-0,1348.33c-0,118.75 96.25,214.584 214.583,214.584l1348.33,-0c118.75,-0 214.584,-96.25 214.584,-214.584l-0,-1348.33c-0,-118.75 -95.834,-214.583 -214.584,-214.583Z" style="fill:#566b8d;fill-rule:nonzero;"/></g><g><g><path d="M1299.1,464.592c28.75,-0 51.111,23.16 51.111,51.111l-0,1051.93c-0,28.75 -23.16,51.111 -51.111,51.111l-514.868,0c-28.75,0 -51.112,-23.159 -51.112,-51.111l0,-1051.93c0,-28.75 23.16,-51.111 51.112,-51.111l514.868,-0m-0,-47.119l-514.868,0c-54.306,0 -98.23,44.723 -98.23,98.23l-0,1051.93c-0,54.306 44.723,98.23 98.23,98.23l514.868,-0c54.305,-0 98.229,-44.723 98.229,-98.23l0,-1051.93c0,-53.507 -43.924,-98.23 -98.229,-98.23Z" style="fill:#566b8d;fill-rule:nonzero;"/></g><g><path d="M952.278,939.776l-167.526,290.045l335.677,-0l-168.151,-290.045Z" style="fill:#566b8d;fill-rule:nonzero;"/><path d="M1157.93,1030.41l-140.022,199.406l280.668,-0l-140.646,-199.406Z" style="fill:#566b8d;fill-rule:nonzero;"/><circle cx="1114.8" cy="896.644" r="43.132" style="fill:#566b8d;"/></g></g></svg>

<svg xmlns="http://www.w3.org/2000/svg" xml:space="preserve" style="fill-rule:evenodd;clip-rule:evenodd;stroke-linejoin:round;stroke-miterlimit:2" viewBox="0 0 2084 2084"><path d="M1715.83 223.75c79.167 0 143.75 64.583 143.75 143.75v1348.33c0 79.167-64.583 143.75-143.75 143.75H367.5c-79.167 0-143.75-64.583-143.75-143.75V367.5c0-79.167 64.583-143.75 143.75-143.75zm0-70.833H367.5c-118.75 0-214.583 96.25-214.583 214.583v1348.33c0 118.75 96.25 214.584 214.583 214.584h1348.33c118.75 0 214.584-96.25 214.584-214.584V367.5c0-118.75-95.834-214.583-214.584-214.583" style="fill:#566b8d;fill-rule:nonzero"/><path d="M1299.1 464.592c28.75 0 51.111 23.16 51.111 51.111v1051.93c0 28.75-23.16 51.111-51.111 51.111H784.232c-28.75 0-51.112-23.159-51.112-51.111V515.703c0-28.75 23.16-51.111 51.112-51.111zm0-47.119H784.232c-54.306 0-98.23 44.723-98.23 98.23v1051.93c0 54.306 44.723 98.23 98.23 98.23H1299.1c54.305 0 98.229-44.723 98.229-98.23V515.703c0-53.507-43.924-98.23-98.229-98.23" style="fill:#566b8d;fill-rule:nonzero"/><path d="m952.278 939.776-167.526 290.045h335.677z" style="fill:#566b8d;fill-rule:nonzero"/><path d="m1157.93 1030.41-140.022 199.406h280.668z" style="fill:#566b8d;fill-rule:nonzero"/><circle cx="1114.8" cy="896.644" r="43.132" style="fill:#566b8d"/></svg>
